svgs/sharp-solid/hashtag-lock.svg

<svg xmlns="http://www.w3.org/2000/svg" viewBox="0 0 576 512"><!--! Font Awesome Pro 6.6.0 by @fontawesome - https://fontawesome.com License - https://fontawesome.com/license (Commercial License) Copyright 2024 Fonticons, Inc. --><path d="M308.9 32l64.9 0-16 96 74.2 0 12.9 0-5.8 34.8c-20.5 4.7-38.9 15-53.5 29.2l-38.5 0-16 96L320 288l0 96-4.9 0-16 96-64.9 0 16-96-95.1 0-16 96-64.9 0 16-96L16 384 3.1 384l10.7-64 2.2 0 84.9 0 21.3-128L48 192l-12.9 0 10.7-64 2.2 0 84.9 0 16-96 64.9 0-16 96 95.1 0 16-96zM165.8 320l95.1 0 21.3-128-95.1 0L165.8 320zM464 240c-17.7 0-32 14.3-32 32l0 48 64 0 0-48c0-17.7-14.3-32-32-32zm-80 32c0-44.2 35.8-80 80-80s80 35.8 80 80l0 48 32 0 0 192-224 0 0-192 32 0 0-48z"/></svg>

<svg xmlns="http://www.w3.org/2000/svg" viewBox="0 0 576 512"><!--! Font Awesome Pro 6.4.0 by @fontawesome - https://fontawesome.com License - https://fontawesome.com/license (Commercial License) Copyright 2023 Fonticons, Inc. --><path d="M308.9 32h64.9l-16 96H432h12.9l-5.8 34.8c-20.5 4.7-38.9 15-53.5 29.2H347.1l-16 96H320l0 96h-4.9l-16 96H234.2l16-96H155.1l-16 96H74.2l16-96H16 3.1l10.7-64H16h84.9l21.3-128H48 35.1l10.7-64H48h84.9l16-96h64.9l-16 96h95.1l16-96zM165.8 320h95.1l21.3-128H187.1L165.8 320zM464 240c-17.7 0-32 14.3-32 32v48h64V272c0-17.7-14.3-32-32-32zm-80 32c0-44.2 35.8-80 80-80s80 35.8 80 80v48h32V512H352V320h32V272z"/></svg>
